; generated by PrusaSlicer 2.6.0+win64 on 2023-07-27 at 05:02:34 UTC


;
;
; 

; external perimeters extrusion width = 0.45mm
; perimeters extrusion width = 0.45mm
; infill extrusion width = 0.45mm
; solid infill extrusion width = 0.45mm
; top infill extrusion width = 0.40mm
; support material extrusion width = 0.35mm
; first layer extrusion width = 0.42mm

M73 P0 R220
M73 Q0 S221
M201 X1000 Y1000 Z200 E5000 ; sets maximum accelerations, mm/sec^2
M203 X200 Y200 Z12 E120 ; sets maximum feedrates, mm / sec
M204 S1250 T1250 ; sets acceleration (S) and retract acceleration (R), mm/sec^2
M205 X8.00 Y8.00 Z0.40 E4.50 ; sets the jerk limits, mm/sec
M205 S0 T0 ; sets the minimum extruding and travel feed rate, mm/sec
;TYPE:Custom
M862.3 P "MK3S" ; printer model check
M862.1 P0.4 ; nozzle diameter check
M115 U3.12.2 ; tell printer latest fw version
G90 ; use absolute coordinates
M83 ; extruder relative mode
M104 S215 ; set extruder temp
M140 S60 ; set bed temp
M190 S60 ; wait for bed temp
M109 S215 ; wait for extruder temp
G28 W ; home all without mesh bed level
G80 ; mesh bed leveling

G1 Z0.2 F720
G1 Y-3 F1000 ; go outside print area
G92 E0
G1 X60 E9 F1000 ; intro line
G1 X100 E12.5 F1000 ; intro line

G92 E0
M221 S95

; Don't change E values below. Excessive value can damage the printer.
M907 E430 ; set extruder motor current
G21 ; set units to millimeters
G90 ; use absolute coordinates
M83 ; use relative distances for extrusion
M900 K0.05 ; Filament gcode LA 1.5
M900 K30 ; Filament gcode LA 1.0
M107
;LAYER_CHANGE
;Z:0.2
;HEIGHT:0.2
;BEFORE_LAYER_CHANGE
G92 E0.0
;0.2


G1 E-.8 F2100
G1 Z.4 F720
;AFTER_LAYER_CHANGE
;0.2
G1 X111.528 Y49.542 F10800
G1 Z.2 F720
G1 E.8 F2100
M204 S800
;TYPE:Skirt/Brim
;WIDTH:0.42
G1 F1200
G1 X113.041 Y48.751 E.05353
G1 X121.904 Y47.723 E.27976
G1 X130.798 Y47.745 E.27887
M73 P0 R219
G1 X138.144 Y48.757 E.2325
G1 X139.61 Y49.542 E.05214
G1 X140.307 Y51.223 E.05706
G1 X140.307 Y158.643 E3.36808
G1 X139.814 Y160.092 E.04799
G1 X139.625 Y160.337 E.0097
G1 X138.069 Y161.242 E.05644
G1 X130.801 Y162.254 E.23008
G1 X121.904 Y162.277 E.27896
G1 X113.041 Y161.249 E.27976
G1 X111.528 Y160.458 E.05353
G1 X110.832 Y158.777 E.05705
G1 X110.832 Y51.223 E3.37228
G1 X111.505 Y49.597 E.05518
M204 S1000
;WIPE_START
G1 F8640
G1 X113.041 Y48.751 E-.4049
G1 X114.741 Y48.554 E-.3951
;WIPE_END
G1 Z.6 F720
G1 X119.534 Y53.413 F10800
G1 Z.2 F720
G1 E.8 F2100
M204 S800
G1 F1200
G1 X120.299 Y52.131 E.04681
G1 X121.278 Y51.225 E.04182
G1 X122.078 Y50.781 E.02869
G1 X123.155 Y50.454 E.03529
G1 X129.297 Y50.458 E.19258
G1 X130.066 Y50.685 E.02514
G1 X130.784 Y51.019 E.02483
G1 X131.913 Y51.939 E.04566
G1 X132.766 Y53.233 E.04859
G1 X133.174 Y54.779 E.05013
G1 X133.174 Y155.218 E3.14919
G1 X132.845 Y156.584 E.04405
M73 Q0 S220
G1 X132.121 Y157.816 E.0448
G1 X131.151 Y158.737 E.04194
G1 X130.365 Y159.19 E.02844
G1 X129.167 Y159.555 E.03927
G1 X123.622 Y159.615 E.17387
G1 X122.115 Y159.234 E.04874
G1 X120.776 Y158.375 E.04988
G1 X120.242 Y157.799 E.02463
G1 X119.814 Y157.196 E.02319
G1 X119.203 Y155.246 E.06407
G1 X119.203 Y54.782 E3.14998
G1 X119.52 Y53.471 E.04229
M204 S1000
G1 X119.886 Y53.561 F10800
M204 S800
G1 F1200
G1 X120.607 Y52.351 E.04416
G1 X121.515 Y51.519 E.03861
G1 X122.242 Y51.121 E.02599
G1 X123.184 Y50.831 E.0309
G1 X129.217 Y50.827 E.18916
G1 X129.92 Y51.033 E.02297
G1 X130.604 Y51.351 E.02365
G1 X131.616 Y52.173 E.04088
G1 X132.41 Y53.362 E.04483
G1 X132.797 Y54.804 E.04681
G1 X132.797 Y155.195 E3.14769
G1 X132.485 Y156.466 E.04103
G1 X131.812 Y157.6 E.04135
G1 X130.91 Y158.446 E.03877
G1 X130.197 Y158.852 E.02573
G1 X129.136 Y159.179 E.03481
G1 X123.643 Y159.238 E.17224
G1 X122.239 Y158.877 E.04545
G1 X121.036 Y158.101 E.04489
G1 X120.528 Y157.552 E.02345
G1 X120.139 Y157.002 E.02112
G1 X119.58 Y155.218 E.05862
G1 X119.58 Y54.805 E3.14838
G1 X119.871 Y53.619 E.03829
M204 S1000
G1 X120.237 Y53.711 F10800
M204 S800
G1 F1200
G1 X120.251 Y53.652 E.0019
G1 X120.914 Y52.572 E.03973
G1 X121.751 Y51.815 E.03538
G1 X122.374 Y51.475 E.02225
G1 X123.214 Y51.208 E.02764
G1 X129.137 Y51.197 E.18571
G1 X129.8 Y51.391 E.02166
G1 X130.422 Y51.682 E.02153
G1 X131.355 Y52.446 E.03781
G1 X132.078 Y53.543 E.04119
G1 X132.42 Y54.828 E.04169
G1 X132.42 Y155.172 E3.14622
G1 X132.127 Y156.347 E.03797
G1 X131.503 Y157.382 E.03789
G1 X130.671 Y158.154 E.03559
G1 X130.03 Y158.514 E.02305
G1 X129.104 Y158.802 E.03041
G1 X123.663 Y158.861 E.17061
G1 X122.416 Y158.543 E.04035
G1 X121.296 Y157.827 E.04168
G1 X120.813 Y157.305 E.0223
G1 X120.465 Y156.81 E.01897
G1 X119.957 Y155.189 E.05326
G1 X119.957 Y54.828 E3.14675
G1 X120.222 Y53.769 E.03423
M204 S1000
G1 X120.587 Y53.862 F10800
M204 S800
G1 F1200
G1 X120.609 Y53.774 E.00284
G1 X121.219 Y52.795 E.03617
G1 X121.985 Y52.111 E.0322
G1 X122.508 Y51.828 E.01865
G1 X123.246 Y51.585 E.02436
G1 X129.059 Y51.566 E.18226
G1 X129.654 Y51.739 E.01943
G1 X130.24 Y52.014 E.0203
G1 X131.092 Y52.717 E.03463
G1 X131.745 Y53.723 E.0376
G1 X132.043 Y54.852 E.03661
G1 X132.043 Y155.148 E3.14471
G1 X131.769 Y156.225 E.03484
G1 X131.196 Y157.162 E.03444
G1 X130.434 Y157.86 E.0324
G1 X129.864 Y158.175 E.02042
G1 X129.072 Y158.425 E.02604
G1 X123.685 Y158.483 E.16892
G1 X122.541 Y158.186 E.03706
G1 X121.557 Y157.554 E.03667
G1 X121.099 Y157.059 E.02114
G1 X120.791 Y156.618 E.01687
G1 X120.334 Y155.16 E.04791
G1 X120.334 Y54.852 E3.14509
G1 X120.572 Y53.92 E.03016
M204 S1000
M73 P0 R218
G1 X120.936 Y54.015 F10800
M204 S800
G1 F1200
G1 X120.966 Y53.898 E.00379
G1 X121.522 Y53.02 E.03258
G1 X122.217 Y52.409 E.02901
G1 X122.645 Y52.179 E.01523
G1 X123.28 Y51.962 E.02104
G1 X128.98 Y51.936 E.17872
G1 X129.534 Y52.097 E.01809
G1 X130.057 Y52.344 E.01814
G1 X130.828 Y52.988 E.0315
G1 X131.389 Y53.85 E.03225
G1 X131.666 Y54.878 E.03338
G1 X131.666 Y155.123 E3.14311
G1 X131.411 Y156.102 E.03172
G1 X130.89 Y156.939 E.03091
G1 X130.198 Y157.565 E.02926
G1 X129.73 Y157.822 E.01674
G1 X129.038 Y158.048 E.02282
G1 X123.705 Y158.106 E.16722
G1 X122.717 Y157.851 E.03199
G1 X121.817 Y157.279 E.03344
G1 X121.384 Y156.813 E.01995
G1 X121.117 Y156.427 E.01472
G1 X120.712 Y155.132 E.04254
G1 X120.712 Y54.877 E3.14343
G1 X120.921 Y54.073 E.02605
M204 S1000
G1 X121.284 Y54.17 F10800
M204 S800
G1 F1200
G1 X121.323 Y54.025 E.00471
G1 X121.824 Y53.248 E.02899
G1 X122.447 Y52.709 E.02583
G1 X122.786 Y52.529 E.01203
G1 X123.315 Y52.339 E.01762
G1 X128.903 Y52.306 E.17521
G1 X129.387 Y52.445 E.01579
G1 X129.873 Y52.674 E.01685
G1 X130.562 Y53.257 E.0283
G1 X131.056 Y54.028 E.02871
G1 X131.289 Y54.902 E.02836
G1 X131.289 Y155.098 E3.14158
G1 X131.055 Y155.975 E.02846
G1 X130.587 Y156.714 E.02743
G1 X129.964 Y157.268 E.02614
G1 X129.592 Y157.471 E.01329
G1 X129.003 Y157.672 E.01951
G1 X123.727 Y157.729 E.16543
G1 X122.843 Y157.494 E.02868
M73 Q0 S219
G1 X122.077 Y157.005 E.02849
G1 X121.671 Y156.567 E.01873
G1 X121.444 Y156.237 E.01256
G1 X121.089 Y155.103 E.03726
G1 X121.089 Y54.902 E3.14173
G1 X121.269 Y54.228 E.02187
M204 S1000
G1 X121.631 Y54.327 F10800
M204 S800
G1 F1200
G1 X121.678 Y54.154 E.00562
G1 X122.092 Y53.514 E.0239
G1 X122.645 Y53.03 E.02304
G1 X122.926 Y52.879 E.01
G1 X123.412 Y52.705 E.01619
G1 X128.827 Y52.676 E.16979
G1 X129.241 Y52.792 E.01348
G1 X129.688 Y53.004 E.01551
G1 X130.295 Y53.525 E.02508
G1 X130.7 Y54.156 E.02351
G1 X130.912 Y54.928 E.0251
G1 X130.912 Y155.072 E3.13994
G1 X130.699 Y155.846 E.02517
G1 X130.286 Y156.486 E.02388
G1 X129.733 Y156.97 E.02304
G1 X129.451 Y157.121 E.01003
G1 X128.965 Y157.295 E.01619
G1 X123.75 Y157.351 E.16352
G1 X122.971 Y157.139 E.02531
G1 X122.338 Y156.732 E.0236
G1 X121.957 Y156.321 E.01757
G1 X121.771 Y156.048 E.01036
G1 X121.466 Y155.074 E.032
G1 X121.466 Y54.928 E3.14001
G1 X121.615 Y54.385 E.01765
M204 S1000
G1 X121.975 Y54.487 F10800
M204 S800
G1 F1200
G1 X122.033 Y54.285 E.00659
G1 X122.361 Y53.779 E.01891
G1 X122.845 Y53.35 E.02028
G1 X123.068 Y53.229 E.00795
G1 X123.509 Y53.071 E.01469
G1 X128.752 Y53.047 E.16439
G1 X129.095 Y53.141 E.01115
G1 X129.503 Y53.333 E.01414
G1 X130.027 Y53.791 E.02182
G1 X130.345 Y54.286 E.01845
G1 X130.535 Y54.955 E.02181
G1 X130.535 Y155.045 E3.13825
G1 X130.345 Y155.715 E.02184
G1 X130.016 Y156.221 E.01892
G1 X129.533 Y156.65 E.02026
G1 X129.31 Y156.771 E.00795
G1 X128.868 Y156.929 E.01472
G1 X123.775 Y156.974 E.15969
G1 X123.101 Y156.784 E.02196
G1 X122.599 Y156.459 E.01875
G1 X122.244 Y156.076 E.01637
G1 X122.099 Y155.86 E.00816
G1 X121.843 Y155.045 E.02678
G1 X121.843 Y54.955 E3.13825
G1 X121.959 Y54.545 E.01336
M204 S1000
G1 X122.318 Y54.65 F10800
M204 S800
G1 F1200
G1 X122.386 Y54.419 E.00755
G1 X122.632 Y54.043 E.01409
G1 X123.048 Y53.669 E.01754
G1 X123.21 Y53.578 E.00583
G1 X123.606 Y53.437 E.01318
G1 X128.68 Y53.418 E.15909
G1 X128.95 Y53.489 E.00875
G1 X129.317 Y53.662 E.01272
G1 X129.756 Y54.054 E.01845
G1 X129.992 Y54.42 E.01365
G1 X130.158 Y54.983 E.0184
G1 X130.158 Y155.017 E3.1365
G1 X129.992 Y155.581 E.01843
G1 X129.746 Y155.957 E.01409
G1 X129.33 Y156.331 E.01754
G1 X129.167 Y156.422 E.00585
G1 X128.771 Y156.563 E.01318
G1 X123.801 Y156.597 E.15583
G1 X123.235 Y156.431 E.01849
G1 X122.86 Y156.186 E.01404
G1 X122.532 Y155.832 E.01513
G1 X122.428 Y155.675 E.0059
G1 X122.22 Y155.016 E.02167
G1 X122.22 Y54.983 E3.13646
G1 X122.301 Y54.708 E.00899
M204 S1000
G1 X122.657 Y54.818 F10800
M204 S800
G1 F1200
G1 X122.738 Y54.557 E.00857
G1 X122.903 Y54.305 E.00944
G1 X123.255 Y53.984 E.01494
G1 X123.354 Y53.927 E.00358
G1 X123.703 Y53.802 E.01162
G1 X128.612 Y53.789 E.15392
G1 X128.807 Y53.838 E.0063
G1 X129.129 Y53.991 E.01118
G1 X129.484 Y54.315 E.01507
G1 X129.64 Y54.557 E.00903
G1 X129.781 Y55.012 E.01494
G1 X129.781 Y154.988 E3.13468
G1 X129.64 Y155.443 E.01494
M73 P0 R217
G1 X129.474 Y155.695 E.00946
G1 X129.123 Y156.016 E.01491
G1 X129.023 Y156.073 E.00361
G1 X128.675 Y156.198 E.01159
G1 X123.829 Y156.22 E.15194
G1 X123.374 Y156.079 E.01494
G1 X123.121 Y155.913 E.00949
G1 X122.82 Y155.588 E.01389
G1 X122.759 Y155.493 E.00354
G1 X122.597 Y154.987 E.01666
G1 X122.597 Y55.012 E3.13465
G1 X122.639 Y54.875 E.00449
M204 S1000
M73 P1 R217
M73 Q1 S219
G1 X122.992 Y54.991 F10800
M204 S800
G1 F1200
G1 X123.087 Y54.701 E.00957
G1 X123.176 Y54.566 E.00507
G1 X123.469 Y54.295 E.01251
G1 X123.799 Y54.168 E.01109
G1 X128.548 Y54.161 E.1489
G1 X128.665 Y54.188 E.00376
G1 X128.939 Y54.318 E.00951
G1 X129.207 Y54.573 E.0116
G1 X129.29 Y54.7 E.00476
G1 X129.404 Y55.044 E.01136
G1 X129.404 Y154.956 E3.13267
G1 X129.291 Y155.299 E.01132
G1 X129.201 Y155.434 E.00509
G1 X128.909 Y155.705 E.01249
G1 X128.578 Y155.832 E.01112
G1 X123.861 Y155.843 E.1479
G1 X123.517 Y155.73 E.01135
G1 X123.383 Y155.64 E.00506
G1 X123.093 Y155.317 E.01361
G1 X122.974 Y154.956 E.01192
G1 X122.974 Y55.048 E3.13255
M204 S1000
G1 X123.351 Y55.079 F10800
M204 S800
M73 Q1 S218
G1 F1200
G1 X123.449 Y54.828 E.00845
G1 X123.683 Y54.611 E.01001
G1 X123.896 Y54.534 E.0071
G1 X128.496 Y54.534 E.14423
G1 X128.746 Y54.644 E.00856
G1 X128.927 Y54.825 E.00803
G1 X129.026 Y55.079 E.00855
G1 X129.026 Y154.921 E3.13048
G1 X128.929 Y155.172 E.00844
G1 X128.695 Y155.389 E.01001
G1 X128.482 Y155.466 E.0071
G1 X123.896 Y155.466 E.14379
G1 X123.645 Y155.368 E.00845
G1 X123.427 Y155.134 E.01003
G1 X123.351 Y154.921 E.00709
G1 X123.351 Y55.139 E3.12859
M204 S1000
G1 X123.728 Y55.139 F10800
M204 S800
G1 F1200
G1 X123.757 Y55.052 E.00288
G1 X123.868 Y54.94 E.00494
G1 X123.938 Y54.911 E.00238
G1 X128.44 Y54.911 E.14116
G1 X128.509 Y54.94 E.00235
G1 X128.621 Y55.052 E.00497
G1 X128.649 Y55.121 E.00233
G1 X128.649 Y154.879 E3.12784
G1 X128.621 Y154.948 E.00233
G1 X128.509 Y155.06 E.00497
G1 X128.44 Y155.089 E.00235
G1 X123.938 Y155.089 E.14116
G1 X123.868 Y155.06 E.00238
G1 X123.757 Y154.948 E.00494
G1 X123.728 Y154.879 E.00235
G1 X123.728 Y55.199 E3.1254
M204 S1000
; printing object BONNEPINCE.stl id:0 copy 0
;WIPE_START
G1 F8640
G1 X123.757 Y55.052 E-.0346
G1 X123.868 Y54.94 E-.03641
G1 X123.938 Y54.911 E-.0175
G1 X127.019 Y54.911 E-.71149
;WIPE_END
G1 Z.6 F720
G1 X120.029 Y51.301 F10800
G1 Z.2 F720
G1 E.8 F2100
M204 S800
;TYPE:Support material
G1 F1200
G1 X118.915 Y52.947 E.06232
G1 X118.507 Y54.979 E.06498
G1 X118.507 Y155.02 E3.13672
G1 X118.883 Y156.975 E.06242
G1 X120.01 Y158.699 E.06458
G1 X113.397 Y158.699 E.20735
G1 X113.397 Y51.301 E3.36739
G1 X119.973 Y51.301 E.20619
M204 S1000
;WIPE_START
G1 F8640
G1 X116.508 Y51.301 E-.8
;WIPE_END
G1 Z.6 F720
G1 X119.285 Y158.529 F10800
G1 Z.2 F720
G1 E.8 F2100
M204 S800
G1 F1200
G1 X119.285 Y158.209 E.01003
G1 X118.866 Y157.568 E.02401
G1 X118.866 Y158.36 E.02483
G1 X118.447 Y158.36 E.01314
G1 X118.447 Y156.502 E.05826
G1 X118.167 Y155.052 E.0463
G1 X118.167 Y54.945 E3.13878
G1 X118.447 Y53.556 E.04443
G1 X118.447 Y51.64 E.06007
G1 X118.866 Y51.64 E.01314
G1 X118.866 Y52.415 E.0243
G1 X119.285 Y51.796 E.02344
G1 X119.285 Y51.471 E.01019
M204 S1000
;WIPE_START
G1 F8640
G1 X119.285 Y51.796 E-.07504
G1 X118.866 Y52.415 E-.17259
G1 X118.866 Y51.64 E-.17895
G1 X118.447 Y51.64 E-.09675
G1 X118.447 Y52.838 E-.27667
;WIPE_END
G1 Z.6 F720
G1 X118.028 Y158.529 F10800
G1 Z.2 F720
G1 E.8 F2100
M204 S800
G1 F1200
G1 X118.028 Y51.64 E3.35143
G1 X117.609 Y51.64 E.01314
M73 P1 R216
G1 X117.609 Y158.36 E3.34613
G1 X117.19 Y158.36 E.01314
G1 X117.19 Y51.64 E3.34613
G1 X116.771 Y51.64 E.01314
G1 X116.771 Y158.36 E3.34613
G1 X116.352 Y158.36 E.01314
M73 Q1 S217
G1 X116.352 Y51.64 E3.34613
G1 X115.933 Y51.64 E.01314
G1 X115.933 Y158.36 E3.34613
G1 X115.514 Y158.36 E.01314
G1 X115.514 Y51.64 E3.34613
G1 X115.095 Y51.64 E.01314
G1 X115.095 Y158.36 E3.34613
G1 X114.676 Y158.36 E.01314
G1 X114.676 Y51.64 E3.34613
G1 X114.257 Y51.64 E.01314
G1 X114.257 Y158.36 E3.34613
G1 X113.838 Y158.36 E.01314
G1 X113.838 Y51.471 E3.35143
M204 S1000
;WIPE_START
G1 F8640
G1 X113.838 Y54.936 E-.8
;WIPE_END
G1 Z.6 F720
G1 X137.741 Y158.699 F10800
G1 Z.2 F720
M73 P1 R215
G1 E.8 F2100
M204 S800
G1 F1200
G1 X132.348 Y158.699 E.16909
G1 X133.462 Y157.053 E.06232
G1 X133.871 Y155.021 E.06499
G1 X133.871 Y54.98 E3.13672
G1 X133.494 Y53.025 E.06243
G1 X132.367 Y51.301 E.06458
G1 X137.741 Y51.301 E.1685
G1 X137.741 Y158.643 E3.36563
M204 S1000
G1 X137.301 Y158.53 F10800
M204 S800
G1 F1200
G1 X137.301 Y51.64 E3.35146
G1 X136.882 Y51.64 E.01314
G1 X136.882 Y158.36 E3.34613
G1 X136.463 Y158.36 E.01314
M73 P2 R215
M73 Q2 S216
G1 X136.463 Y51.64 E3.34613
G1 X136.044 Y51.64 E.01314
G1 X136.044 Y158.36 E3.34613
G1 X135.625 Y158.36 E.01314
G1 X135.625 Y51.64 E3.34613
G1 X135.206 Y51.64 E.01314
G1 X135.206 Y158.36 E3.34613
G1 X134.787 Y158.36 E.01314
G1 X134.787 Y51.64 E3.34613
G1 X134.368 Y51.64 E.01314
G1 X134.368 Y158.36 E3.34613
G1 X133.949 Y158.36 E.01314
G1 X133.949 Y156.355 E.06287
G1 X133.782 Y157.187 E.02661
G1 X133.53 Y157.559 E.01409
G1 X133.53 Y158.36 E.02511
G1 X133.111 Y158.36 E.01314
G1 X133.111 Y157.875 E.01521
M204 S1000
;WIPE_START
G1 F8640
G1 X133.111 Y158.36 E-.11199
G1 X133.53 Y158.36 E-.09675
G1 X133.53 Y157.559 E-.18495
G1 X133.782 Y157.187 E-.10375
G1 X133.949 Y156.355 E-.19594
G1 X133.949 Y156.817 E-.10662
;WIPE_END
G1 Z.6 F720
G1 X133.949 Y54.488 F10800
G1 Z.2 F720
G1 E.8 F2100
M204 S800
G1 F1200
G1 X133.949 Y51.64 E.0893
G1 X133.53 Y51.64 E.01314
G1 X133.53 Y52.459 E.02568
G1 X133.111 Y51.818 E.02401
G1 X133.111 Y51.471 E.01088
M204 S1000
;WIPE_START
G1 F8640
G1 X133.111 Y51.818 E-.08012
G1 X133.53 Y52.459 E-.17682
G1 X133.53 Y51.64 E-.18911
G1 X133.949 Y51.64 E-.09675
G1 X133.949 Y52.754 E-.2572
;WIPE_END
G1 Z.6 F720
G1 X127.774 Y55.787 F10800
G1 Z.2 F720
G1 E.8 F2100
M204 S800
;TYPE:Perimeter
;WIDTH:0.419999
G1 F1200
G1 X127.774 Y154.213 E3.08607
G1 X124.604 Y154.213 E.09939
M73 P2 R214
G1 X124.604 Y55.787 E3.08607
G1 X127.714 Y55.787 E.09751
M204 S1000
G1 X128.151 Y55.41 F10800
M204 S800
;TYPE:External perimeter
G1 F1200
G1 X128.151 Y154.59 E3.10971
G1 X124.227 Y154.59 E.12303
G1 X124.227 Y55.41 E3.10971
G1 X128.091 Y55.41 E.12115
M204 S1000
G1 X128.146 Y55.81 F10800
;WIPE_START
M73 Q2 S215
G1 F8640
G1 X128.093 Y58.875 E-.8
;WIPE_END
G1 Z.6 F720
G1 X126.84 Y55.957 F10800
G1 Z.2 F720
G1 E.8 F2100
M204 S800
;TYPE:Solid infill
;WIDTH:0.420763
G1 F1200
