; generated by PrusaSlicer 2.6.0+win64 on 2023-07-14 at 04:28:26 UTC


;
;
; 

; external perimeters extrusion width = 0.45mm
; perimeters extrusion width = 0.45mm
; infill extrusion width = 0.45mm
; solid infill extrusion width = 0.45mm
; top infill extrusion width = 0.40mm
; first layer extrusion width = 0.42mm

M73 P0 R105
M73 Q0 S105
M201 X1000 Y1000 Z200 E5000 ; sets maximum accelerations, mm/sec^2
M203 X200 Y200 Z12 E120 ; sets maximum feedrates, mm / sec
M204 S1250 T1250 ; sets acceleration (S) and retract acceleration (R), mm/sec^2
M205 X8.00 Y8.00 Z0.40 E4.50 ; sets the jerk limits, mm/sec
M205 S0 T0 ; sets the minimum extruding and travel feed rate, mm/sec
;TYPE:Custom
M862.3 P "MK3S" ; printer model check
M862.1 P0.4 ; nozzle diameter check
M115 U3.12.2 ; tell printer latest fw version
G90 ; use absolute coordinates
M83 ; extruder relative mode
M104 S215 ; set extruder temp
M140 S60 ; set bed temp
M190 S60 ; wait for bed temp
M109 S215 ; wait for extruder temp
G28 W ; home all without mesh bed level
G80 ; mesh bed leveling

G1 Z0.2 F720
G1 Y-3 F1000 ; go outside print area
G92 E0
G1 X60 E9 F1000 ; intro line
G1 X100 E12.5 F1000 ; intro line

G92 E0
M221 S95

; Don't change E values below. Excessive value can damage the printer.
M907 E430 ; set extruder motor current
G21 ; set units to millimeters
G90 ; use absolute coordinates
M83 ; use relative distances for extrusion
M900 K0.05 ; Filament gcode LA 1.5
M900 K30 ; Filament gcode LA 1.0
M107
;LAYER_CHANGE
;Z:0.2
;HEIGHT:0.2
;BEFORE_LAYER_CHANGE
G92 E0.0
;0.2


G1 E-.8 F2100
G1 Z.4 F720
;AFTER_LAYER_CHANGE
;0.2
G1 X90.312 Y108.149 F10800
G1 Z.2 F720
G1 E.8 F2100
M204 S800
;TYPE:Skirt/Brim
;WIDTH:0.42
G1 F1200
G1 X218.606 Y1.015 E5.24068
G1 X219.86 Y.477 E.04278
M73 P0 R104
G1 X221.203 Y.718 E.04278
G1 X221.954 Y1.315 E.03008
G1 X244.349 Y28.134 E1.09552
G1 X244.886 Y29.388 E.04277
G1 X244.646 Y30.731 E.04278
G1 X244.048 Y31.482 E.0301
G1 X31.433 Y209.032 E8.68515
G1 X30.179 Y209.569 E.04277
G1 X28.836 Y209.328 E.04278
G1 X28.085 Y208.731 E.03008
G1 X5.689 Y181.912 E1.09554
G1 X5.152 Y180.658 E.04277
M73 Q0 S104
G1 X5.393 Y179.315 E.04278
G1 X5.99 Y178.564 E.03008
G1 X90.266 Y108.187 E3.44261
M204 S1000
; printing object sortingcoinsrampfor3Dprintermesh.stl id:0 copy 0
;WIPE_START
G1 F8640
G1 X92.925 Y105.966 E-.8
;WIPE_END
G1 Z.6 F720
G1 X241.416 Y29.558 F10800
G1 Z.2 F720
G1 E.8 F2100
M204 S800
;TYPE:Perimeter
;WIDTH:0.419999
G1 F1200
G1 X30.009 Y206.098 E8.63576
G1 X8.622 Y180.488 E1.04616
G1 X220.03 Y3.948 E8.63579
G1 X241.378 Y29.512 E1.04427
M204 S1000
M73 P1 R104
M73 Q1 S104
G1 X241.947 Y29.606 F10800
M204 S800
;TYPE:External perimeter
M73 P1 R103
G1 F1200
G1 X29.961 Y206.629 E8.6594
G1 X8.091 Y180.44 E1.0698
G1 X220.077 Y3.417 E8.6594
G1 X241.909 Y29.56 E1.06793
M204 S1000
M73 Q1 S103
G1 X241.63 Y29.85 F10800
;WIPE_START
G1 F8640
G1 X239.25 Y31.781 E-.8
;WIPE_END
G1 Z.6 F720
G1 X215.365 Y35.62 F10800
G1 Z.2 F720
G1 E.8 F2100
M204 S800
;TYPE:Perimeter
G1 F1200
G1 X215.293 Y35.705 E.00349
G1 X195.764 Y52.014 E.79776
G1 X195.524 Y52.132 E.00839
G1 X195.231 Y52.119 E.0092
G1 X194.967 Y51.942 E.00997
G1 X184.171 Y39.014 E.5281
G1 X184.065 Y38.819 E.00696
G1 X184.055 Y38.522 E.00932
G1 X184.173 Y38.286 E.00827
G1 X184.243 Y38.217 E.00308
G1 X203.772 Y21.909 E.79774
G1 X203.932 Y21.815 E.00582
G1 X204.264 Y21.793 E.01043
G1 X204.496 Y21.908 E.00812
G1 X204.569 Y21.981 E.00324
G1 X215.364 Y34.909 E.52808
G1 X215.48 Y35.138 E.00805
G1 X215.475 Y35.424 E.00897
G1 X215.394 Y35.568 E.00518
M204 S1000
G1 X215.051 Y35.416 F10800
M204 S800
;TYPE:External perimeter
G1 F1200
G1 X195.522 Y51.724 E.79774
G1 X195.381 Y51.767 E.00462
G1 X195.257 Y51.7 E.00442
G1 X184.461 Y38.772 E.5281
G1 X184.422 Y38.608 E.00529
G1 X184.485 Y38.507 E.00373
G1 X204.014 Y22.199 E.79774
G1 X204.178 Y22.16 E.00529
G1 X204.279 Y22.222 E.00372
G1 X215.075 Y35.15 E.5281
G1 X215.116 Y35.302 E.00494
G1 X215.081 Y35.364 E.00223
M204 S1000
G1 X215.219 Y35.779 F10800
;WIPE_START
G1 F8640
G1 X212.423 Y37.587 E-.8
;WIPE_END
G1 Z.6 F720
G1 X180.161 Y67.669 F10800
G1 Z.2 F720
G1 E.8 F2100
M204 S800
;TYPE:Perimeter
G1 F1200
G1 X180.241 Y67.829 E.00561
G1 X180.234 Y68.112 E.00888
G1 X180.114 Y68.33 E.0078
G1 X180.052 Y68.391 E.00273
G1 X160.523 Y84.699 E.79774
G1 X160.296 Y84.814 E.00798
G1 X160.065 Y84.823 E.00725
G1 X159.834 Y84.727 E.00784
G1 X159.328 Y84.151 E.02404
G1 X147.328 Y69.781 E.587
G1 X147.222 Y69.586 E.00696
G1 X147.212 Y69.288 E.00935
G1 X147.33 Y69.053 E.00824
G1 X147.4 Y68.984 E.00308
G1 X166.929 Y52.676 E.79774
G1 X167.089 Y52.582 E.00582
G1 X167.421 Y52.559 E.01043
G1 X167.653 Y52.675 E.00813
G1 X167.726 Y52.747 E.00321
G1 X180.134 Y67.615 E.60719
M204 S1000
G1 X179.834 Y67.836 F10800
M204 S800
;TYPE:External perimeter
G1 F1200
G1 X179.876 Y67.983 E.00479
G1 X179.81 Y68.102 E.00427
G1 X160.281 Y84.41 E.79774
G1 X160.129 Y84.451 E.00494
G1 X160.016 Y84.386 E.00409
G1 X147.618 Y69.539 E.60648
G1 X147.582 Y69.474 E.00233
G1 X147.601 Y69.32 E.00487
G1 X147.641 Y69.273 E.00194
G1 X167.171 Y52.965 E.79776
G1 X167.335 Y52.926 E.00529
G1 X167.436 Y52.989 E.00373
G1 X179.796 Y67.79 E.60461
M204 S1000
G1 X179.987 Y67.852 F10800
;WIPE_START
G1 F8640
G1 X179.876 Y67.983 E-.04824
G1 X179.81 Y68.102 E-.03142
G1 X177.415 Y70.102 E-.72034
;WIPE_END
G1 Z.6 F720
G1 X144.766 Y100.172 F10800
G1 Z.2 F720
G1 E.8 F2100
M204 S800
;TYPE:Perimeter
G1 F1200
G1 X144.849 Y100.343 E.00596
G1 X144.837 Y100.621 E.00872
G1 X144.727 Y100.823 E.00721
G1 X144.658 Y100.892 E.00306
G1 X125.129 Y117.2 E.79774
G1 X124.934 Y117.307 E.00697
G1 X124.636 Y117.317 E.00935
G1 X124.422 Y117.215 E.00743
G1 X124.332 Y117.129 E.0039
G1 X110.485 Y100.547 E.67735
G1 X110.379 Y100.352 E.00696
G1 X110.369 Y100.055 E.00932
G1 X110.487 Y99.82 E.00824
G1 X110.557 Y99.751 E.00308
G1 X130.086 Y83.442 E.79776
G1 X130.246 Y83.348 E.00582
M73 P2 R103
M73 Q2 S103
G1 X130.578 Y83.326 E.01043
G1 X130.81 Y83.442 E.00813
G1 X130.882 Y83.514 E.00319
G1 X144.74 Y100.118 E.67811
M204 S1000
G1 X144.44 Y100.337 F10800
M204 S800
;TYPE:External perimeter
G1 F1200
G1 X144.482 Y100.48 E.00467
G1 X144.416 Y100.603 E.00438
G1 X124.887 Y116.911 E.79774
G1 X124.754 Y116.954 E.00438
G1 X124.621 Y116.887 E.00467
G1 X110.774 Y100.306 E.67733
G1 X110.736 Y100.141 E.00531
G1 X110.798 Y100.04 E.00372
G1 X130.327 Y83.732 E.79774
G1 X130.492 Y83.693 E.00532
M73 P2 R102
G1 X130.593 Y83.756 E.00373
G1 X144.401 Y100.291 E.67544
M204 S1000
G1 X144.588 Y100.352 F10800
;WIPE_START
G1 F8640
G1 X144.482 Y100.48 E-.04748
G1 X144.416 Y100.603 E-.03223
G1 X142.022 Y102.602 E-.72029
;WIPE_END
G1 Z.6 F720
G1 X109.91 Y133.322 F10800
G1 Z.2 F720
G1 E.8 F2100
M204 S800
;TYPE:Perimeter
G1 F1200
G1 X109.997 Y133.512 E.00655
G1 X109.976 Y133.781 E.00846
G1 X109.802 Y134.038 E.00973
G1 X86.435 Y153.551 E.95452
G1 X86.151 Y153.677 E.00974
G1 X85.882 Y153.65 E.00848
G1 X85.638 Y153.48 E.00932
G1 X69.804 Y134.519 E.77454
G1 X69.698 Y134.324 E.00696
G1 X69.673 Y134.186 E.0044
G1 X69.755 Y133.863 E.01045
G1 X69.876 Y133.722 E.00583
G1 X93.243 Y114.209 E.95452
G1 X93.403 Y114.115 E.00582
G1 X93.735 Y114.093 E.01043
G1 X93.967 Y114.208 E.00812
G1 X94.039 Y114.281 E.00321
G1 X109.885 Y133.268 E.77541
M204 S1000
G1 X109.584 Y133.483 F10800
M204 S800
;TYPE:External perimeter
G1 F1200
G1 X109.627 Y133.617 E.00441
G1 X109.56 Y133.749 E.00464
G1 X86.193 Y153.262 E.95452
G1 X86.051 Y153.305 E.00465
G1 X85.927 Y153.238 E.00442
G1 X70.094 Y134.277 E.77452
G1 X70.05 Y134.166 E.00374
G1 X70.117 Y134.011 E.00529
G1 X93.484 Y114.498 E.95452
G1 X93.648 Y114.46 E.00528
G1 X93.75 Y114.522 E.00374
G1 X109.545 Y133.437 E.77265
M204 S1000
G1 X109.723 Y133.495 F10800
;WIPE_START
G1 F8640
G1 X109.627 Y133.617 E-.04567
G1 X109.56 Y133.749 E-.03418
G1 X107.166 Y135.748 E-.72015
;WIPE_END
G1 Z.6 F720
G1 X70.609 Y169.657 F10800
G1 Z.2 F720
G1 E.8 F2100
M204 S800
;TYPE:Perimeter
G1 F1200
G1 X70.556 Y169.729 E.0028
G1 X47.19 Y189.242 E.95449
G1 X46.943 Y189.362 E.00861
G1 X46.697 Y189.359 E.00771
G1 X46.512 Y189.278 E.00633
G1 X46.393 Y189.171 E.00502
G1 X29.123 Y168.49 E.8448
G1 X29.017 Y168.295 E.00696
G1 X29.007 Y167.998 E.00932
G1 X29.125 Y167.763 E.00824
G1 X29.195 Y167.694 E.00308
G1 X52.562 Y148.18 E.95454
G1 X52.722 Y148.086 E.00582
G1 X53.054 Y148.064 E.01043
G1 X53.286 Y148.18 E.00813
G1 X53.358 Y148.252 E.00319
G1 X70.628 Y168.933 E.8448
G1 X70.712 Y169.069 E.00501
G1 X70.759 Y169.266 E.00635
G1 X70.718 Y169.508 E.0077
G1 X70.644 Y169.609 E.00393
M204 S1000
G1 X70.315 Y169.44 F10800
M204 S800
;TYPE:External perimeter
G1 F1200
G1 X46.948 Y188.953 E.95452
G1 X46.784 Y188.992 E.00529
G1 X46.682 Y188.929 E.00376
G1 X29.413 Y168.249 E.84475
G1 X29.374 Y168.084 E.00532
M73 Q2 S102
G1 X29.437 Y167.983 E.00373
G1 X52.803 Y148.47 E.95449
G1 X52.968 Y148.431 E.00532
G1 X53.069 Y148.494 E.00373
G1 X70.339 Y169.174 E.84477
G1 X70.382 Y169.285 E.00373
G1 X70.339 Y169.385 E.00341
M204 S1000
G1 X70.483 Y169.803 F10800
;WIPE_START
G1 F8640
G1 X67.682 Y171.608 E-.8
;WIPE_END
G1 Z.6 F720
G1 X223.915 Y8.865 F10800
G1 Z.2 F720
G1 E.8 F2100
M204 S800
;TYPE:Solid infill
;WIDTH:0.420276
G1 F1200
G1 X219.708 Y4.658 E.18668
G1 X219.417 Y4.901 E.0119
G1 X225.277 Y10.761 E.26003
G1 X227.979 Y13.996 E.13225
G1 X219.126 Y5.144 E.39282
G1 X218.836 Y5.387 E.01187
G1 X230.681 Y17.232 E.52561
G1 X233.383 Y20.468 E.13228
G1 X218.545 Y5.63 E.65842
G1 X218.254 Y5.873 E.0119
G1 X236.085 Y23.704 E.79124
G1 X238.787 Y26.939 E.13225
G1 X217.963 Y6.115 E.92405
G1 X217.672 Y6.358 E.0119
G1 X240.879 Y29.565 E1.02979
G1 X240.588 Y29.808 E.0119
G1 X217.382 Y6.601 E1.02977
G1 X217.091 Y6.844 E.0119
G1 X240.297 Y30.05 E1.02975
G1 X240.006 Y30.293 E.0119
G1 X216.8 Y7.087 E1.02975
G1 X216.509 Y7.33 E.0119
G1 X239.715 Y30.536 E1.02975
G1 X239.425 Y30.779 E.01187
G1 X216.218 Y7.573 E1.02977
G1 X215.927 Y7.815 E.01188
G1 X239.134 Y31.022 E1.02979
G1 X238.843 Y31.265 E.0119
G1 X215.637 Y8.058 E1.02977
G1 X215.346 Y8.301 E.0119
G1 X238.552 Y31.508 E1.02977
G1 X238.261 Y31.75 E.01188
G1 X215.055 Y8.544 E1.02975
G1 X214.764 Y8.787 E.0119
G1 X237.971 Y31.993 E1.02977
G1 X237.68 Y32.236 E.0119
G1 X214.473 Y9.03 E1.02977
G1 X214.183 Y9.272 E.01185
G1 X237.389 Y32.479 E1.02977
G1 X237.098 Y32.722 E.0119
G1 X213.892 Y9.515 E1.02977
G1 X213.601 Y9.758 E.0119
G1 X236.807 Y32.965 E1.02977
M73 Q3 S102
G1 X236.517 Y33.207 E.01185
M73 P3 R101
G1 X213.31 Y10.001 E1.02977
G1 X213.019 Y10.244 E.0119
G1 X236.226 Y33.45 E1.02977
G1 X235.935 Y33.693 E.0119
G1 X212.729 Y10.487 E1.02975
G1 X212.438 Y10.73 E.0119
G1 X235.644 Y33.936 E1.02975
G1 X235.353 Y34.179 E.0119
G1 X212.147 Y10.972 E1.02977
G1 X211.856 Y11.215 E.0119
G1 X235.062 Y34.422 E1.02977
G1 X234.772 Y34.665 E.01187
G1 X211.565 Y11.458 E1.02979
G1 X211.274 Y11.701 E.0119
G1 X234.481 Y34.907 E1.02977
G1 X234.19 Y35.15 E.0119
G1 X210.984 Y11.944 E1.02975
G1 X210.693 Y12.187 E.0119
G1 X233.899 Y35.393 E1.02975
G1 X233.608 Y35.636 E.0119
G1 X210.402 Y12.43 E1.02975
G1 X210.111 Y12.672 E.01188
G1 X233.318 Y35.879 E1.02979
G1 X233.027 Y36.122 E.0119
G1 X209.82 Y12.915 E1.02979
G1 X209.53 Y13.158 E.01187
G1 X232.736 Y36.365 E1.02977
G1 X232.445 Y36.607 E.01188
M73 Q3 S101
G1 X209.239 Y13.401 E1.02975
G1 X208.948 Y13.644 E.0119
G1 X232.154 Y36.85 E1.02975
G1 X231.864 Y37.093 E.01187
G1 X208.657 Y13.887 E1.02977
G1 X208.366 Y14.129 E.01188
G1 X231.573 Y37.336 E1.02979
G1 X231.282 Y37.579 E.0119
G1 X208.076 Y14.372 E1.02977
G1 X207.785 Y14.615 E.0119
G1 X230.991 Y37.822 E1.02977
G1 X230.7 Y38.064 E.01188
G1 X207.494 Y14.858 E1.02975
G1 X207.203 Y15.101 E.0119
G1 X230.409 Y38.307 E1.02975
G1 X230.119 Y38.55 E.01187
G1 X206.912 Y15.344 E1.02977
G1 X206.621 Y15.587 E.0119
G1 X229.828 Y38.793 E1.02977
G1 X229.537 Y39.036 E.0119
G1 X206.331 Y15.829 E1.02977
G1 X206.04 Y16.072 E.0119
G1 X229.246 Y39.279 E1.02977
G1 X228.955 Y39.522 E.0119
G1 X205.749 Y16.315 E1.02977
G1 X205.458 Y16.558 E.0119
G1 X228.665 Y39.764 E1.02977
G1 X228.374 Y40.007 E.0119
G1 X205.167 Y16.801 E1.02977
G1 X204.877 Y17.044 E.01187
G1 X228.083 Y40.25 E1.02975
G1 X227.792 Y40.493 E.0119
G1 X204.586 Y17.287 E1.02975
G1 X204.295 Y17.529 E.01188
G1 X227.501 Y40.736 E1.02977
G1 X227.211 Y40.979 E.01187
G1 X204.004 Y17.772 E1.02979
G1 X203.713 Y18.015 E.0119
G1 X226.92 Y41.221 E1.02977
G1 X226.629 Y41.464 E.0119
G1 X203.423 Y18.258 E1.02975
G1 X203.132 Y18.501 E.0119
G1 X226.338 Y41.707 E1.02975
G1 X226.047 Y41.95 E.0119
M73 P3 R100
G1 X202.841 Y18.744 E1.02975
G1 X202.55 Y18.986 E.01188
M73 Q4 S101
G1 X225.756 Y42.193 E1.02977
G1 X225.466 Y42.436 E.01187
M73 P4 R100
G1 X202.259 Y19.229 E1.02979
G1 X201.968 Y19.472 E.0119
G1 X203.961 Y21.464 E.08842
G1 X203.81 Y21.496 E.00484
G1 X203.589 Y21.626 E.00805
G1 X201.678 Y19.715 E.0848
G1 X201.387 Y19.958 E.0119
G1 X203.295 Y21.866 E.08467
G1 X203.004 Y22.108 E.01188
G1 X201.096 Y20.201 E.08464
G1 X200.805 Y20.444 E.0119
G1 X202.713 Y22.351 E.08464
G1 X202.422 Y22.594 E.0119
G1 X200.514 Y20.686 E.08467
G1 X200.224 Y20.929 E.01187
G1 X202.131 Y22.837 E.08464
G1 X201.84 Y23.08 E.0119
G1 X199.933 Y21.172 E.08464
G1 X199.642 Y21.415 E.0119
G1 X201.55 Y23.323 E.08467
G1 X201.259 Y23.566 E.0119
G1 X199.351 Y21.658 E.08467
G1 X199.06 Y21.901 E.0119
G1 X200.968 Y23.808 E.08464
G1 X200.677 Y24.051 E.0119
G1 X198.77 Y22.144 E.08462
G1 X198.479 Y22.386 E.01188
G1 X200.386 Y24.294 E.08464
G1 X200.096 Y24.537 E.01187
G1 X198.188 Y22.629 E.08467
G1 X197.897 Y22.872 E.0119
G1 X199.805 Y24.78 E.08467
G1 X199.514 Y25.023 E.0119
G1 X197.606 Y23.115 E.08467
G1 X197.315 Y23.358 E.0119
G1 X199.223 Y25.265 E.08464
G1 X198.932 Y25.508 E.0119
G1 X197.025 Y23.601 E.08462
G1 X196.734 Y23.843 E.01188
G1 X198.642 Y25.751 E.08467
G1 X198.351 Y25.994 E.0119
G1 X196.443 Y24.086 E.08467
G1 X196.152 Y24.329 E.0119
G1 X198.06 Y26.237 E.08467
G1 X197.769 Y26.48 E.0119
G1 X195.861 Y24.572 E.08467
G1 X195.571 Y24.815 E.01187
G1 X197.478 Y26.723 E.08464
G1 X197.187 Y26.965 E.01188
G1 X195.28 Y25.058 E.08462
G1 X194.989 Y25.301 E.0119
G1 X196.897 Y27.208 E.08464
G1 X196.606 Y27.451 E.0119
G1 X194.698 Y25.543 E.08467
G1 X194.407 Y25.786 E.0119
G1 X196.315 Y27.694 E.08467
G1 X196.024 Y27.937 E.0119
G1 X194.117 Y26.029 E.08464
G1 X193.826 Y26.272 E.0119
G1 X195.733 Y28.18 E.08464
G1 X195.443 Y28.423 E.01187
G1 X193.535 Y26.515 E.08467
G1 X193.244 Y26.758 E.0119
G1 X195.152 Y28.665 E.08464
G1 X194.861 Y28.908 E.0119
G1 X192.953 Y27.001 E.08464
G1 X192.662 Y27.243 E.01188
G1 X194.57 Y29.151 E.08467
G1 X194.279 Y29.394 E.0119
G1 X192.372 Y27.486 E.08464
G1 X192.081 Y27.729 E.0119
G1 X193.989 Y29.637 E.08467
G1 X193.698 Y29.88 E.0119
G1 X191.79 Y27.972 E.08467
G1 X191.499 Y28.215 E.0119
G1 X193.407 Y30.122 E.08464
G1 X193.116 Y30.365 E.0119
G1 X191.208 Y28.458 E.08464
G1 X190.918 Y28.7 E.01185
G1 X192.825 Y30.608 E.08464
G1 X192.534 Y30.851 E.0119
G1 X190.627 Y28.943 E.08464
G1 X190.336 Y29.186 E.0119
G1 X192.244 Y31.094 E.08467
G1 X191.953 Y31.337 E.0119
G1 X190.045 Y29.429 E.08467
G1 X189.754 Y29.672 E.0119
G1 X191.662 Y31.58 E.08467
G1 X191.371 Y31.822 E.01188
G1 X189.464 Y29.915 E.08462
G1 X189.173 Y30.158 E.0119
G1 X191.08 Y32.065 E.08462
G1 X190.79 Y32.308 E.01187
G1 X188.882 Y30.4 E.08467
G1 X188.591 Y30.643 E.0119
G1 X190.499 Y32.551 E.08467
G1 X190.208 Y32.794 E.0119
G1 X188.3 Y30.886 E.08467
G1 X188.009 Y31.129 E.0119
G1 X189.917 Y33.037 E.08467
G1 X189.626 Y33.28 E.0119
G1 X187.719 Y31.372 E.08464
G1 X187.428 Y31.615 E.0119
G1 X189.336 Y33.522 E.08464
G1 X189.045 Y33.765 E.0119
G1 X187.137 Y31.857 E.08467
G1 X186.846 Y32.1 E.0119
G1 X188.754 Y34.008 E.08467
G1 X188.463 Y34.251 E.0119
G1 X186.555 Y32.343 E.08467
G1 X186.265 Y32.586 E.01187
G1 X188.172 Y34.494 E.08464
G1 X187.881 Y34.737 E.0119
G1 X185.974 Y32.829 E.08464
G1 X185.683 Y33.072 E.0119
G1 X187.591 Y34.979 E.08464
G1 X187.3 Y35.222 E.0119
G1 X185.392 Y33.315 E.08464
G1 X185.101 Y33.557 E.01188
G1 X187.009 Y35.465 E.08467
G1 X186.718 Y35.708 E.0119
G1 X184.811 Y33.8 E.08464
G1 X184.52 Y34.043 E.0119
G1 X186.427 Y35.951 E.08464
G1 X186.137 Y36.194 E.01187
G1 X184.229 Y34.286 E.08467
G1 X183.938 Y34.529 E.0119
G1 X185.846 Y36.437 E.08467
G1 X185.555 Y36.679 E.01188
